X: 141
T:O'Connell's Trip to Parliament
R:reel
D:Conal O'Grada: The Top of Coom
Z:Henrik Norbeck id:hn-reel-523
M:C|
N: Posted to the woodenflute mailing list March 2002
K:Dmix
dcAF G2FG|Adde fded|dcAF G2FG|AFGE FDD2:|
|:~f3a gfed|(3B^cd ef g2fe|1 defg a2ge|a2ge fdde:|2 a2ge a2ge|a2ge
fdde||
